images/4217462.svg

<?xml version="1.0" encoding="UTF-8"?>
<svg xmlns="http://www.w3.org/2000/svg" xmlns:xlink="http://www.w3.org/1999/xlink" width="300pt" height="300pt" viewBox="0 0 300 300" version="1.1">
<defs>
<g>
<symbol overflow="visible" id="glyph0-0">
<path style="stroke:none;" d="M 0.546875 1.9375 L 0.546875 -7.75 L 6.046875 -7.75 L 6.046875 1.9375 Z M 1.171875 1.328125 L 5.4375 1.328125 L 5.4375 -7.140625 L 1.171875 -7.140625 Z M 1.171875 1.328125 "/>
</symbol>
<symbol overflow="visible" id="glyph0-1">
<path style="stroke:none;" d="M 4.328125 -7.28125 C 3.546875 -7.28125 2.921875 -6.984375 2.453125 -6.390625 C 1.992188 -5.804688 1.765625 -5.007812 1.765625 -4 C 1.765625 -2.988281 1.992188 -2.1875 2.453125 -1.59375 C 2.921875 -1.007812 3.546875 -0.71875 4.328125 -0.71875 C 5.117188 -0.71875 5.742188 -1.007812 6.203125 -1.59375 C 6.660156 -2.1875 6.890625 -2.988281 6.890625 -4 C 6.890625 -5.007812 6.660156 -5.804688 6.203125 -6.390625 C 5.742188 -6.984375 5.117188 -7.28125 4.328125 -7.28125 Z M 4.328125 -8.171875 C 5.453125 -8.171875 6.351562 -7.789062 7.03125 -7.03125 C 7.707031 -6.28125 8.046875 -5.269531 8.046875 -4 C 8.046875 -2.738281 7.707031 -1.726562 7.03125 -0.96875 C 6.351562 -0.21875 5.453125 0.15625 4.328125 0.15625 C 3.203125 0.15625 2.300781 -0.21875 1.625 -0.96875 C 0.957031 -1.71875 0.625 -2.726562 0.625 -4 C 0.625 -5.269531 0.957031 -6.28125 1.625 -7.03125 C 2.300781 -7.789062 3.203125 -8.171875 4.328125 -8.171875 Z M 4.328125 -8.171875 "/>
</symbol>
<symbol overflow="visible" id="glyph0-2">
<path style="stroke:none;" d="M 1.078125 -8.015625 L 2.171875 -8.015625 L 2.171875 -4.734375 L 6.109375 -4.734375 L 6.109375 -8.015625 L 7.1875 -8.015625 L 7.1875 0 L 6.109375 0 L 6.109375 -3.8125 L 2.171875 -3.8125 L 2.171875 0 L 1.078125 0 Z M 1.078125 -8.015625 "/>
</symbol>
</g>
</defs>
<g id="surface42681">
<rect x="0" y="0" width="300" height="300" style="fill:rgb(100%,100%,100%);fill-opacity:1;stroke:none;"/>
<path style="fill:none;stroke-width:1.2;stroke-linecap:butt;stroke-linejoin:miter;stroke:rgb(0%,0%,0%);stroke-opacity:1;stroke-miterlimit:10;" d="M 152.824219 53.679688 L 131.21875 71.988281 "/>
<path style="fill:none;stroke-width:1.2;stroke-linecap:butt;stroke-linejoin:miter;stroke:rgb(0%,0%,0%);stroke-opacity:1;stroke-miterlimit:10;" d="M 131.21875 71.988281 L 133.746094 85.917969 "/>
<path style="fill:none;stroke-width:1.2;stroke-linecap:butt;stroke-linejoin:miter;stroke:rgb(100%,0%,0%);stroke-opacity:1;stroke-miterlimit:10;" d="M 133.746094 85.917969 L 136.273438 99.851562 "/>
<path style="fill:none;stroke-width:1.2;stroke-linecap:butt;stroke-linejoin:miter;stroke:rgb(100%,0%,0%);stroke-opacity:1;stroke-miterlimit:10;" d="M 136.273438 99.851562 L 125.46875 109.003906 "/>
<path style="fill:none;stroke-width:1.2;stroke-linecap:butt;stroke-linejoin:miter;stroke:rgb(0%,0%,0%);stroke-opacity:1;stroke-miterlimit:10;" d="M 125.46875 109.003906 L 114.667969 118.15625 "/>
<path style=" stroke:none;fill-rule:nonzero;fill:rgb(100%,100%,100%);fill-opacity:1;" d="M 132.273438 93.351562 L 141.273438 93.351562 L 141.273438 106.351562 L 132.273438 106.351562 Z M 132.273438 93.351562 "/>
<g style="fill:rgb(100%,0%,0%);fill-opacity:1;">
  <use xlink:href="#glyph0-1" x="132.273438" y="103.25293"/>
</g>
<path style="fill:none;stroke-width:1.2;stroke-linecap:butt;stroke-linejoin:miter;stroke:rgb(0%,0%,0%);stroke-opacity:1;stroke-miterlimit:10;" d="M 115.792969 115.019531 L 102.464844 110.242188 "/>
<path style="fill:none;stroke-width:1.2;stroke-linecap:butt;stroke-linejoin:miter;stroke:rgb(100%,0%,0%);stroke-opacity:1;stroke-miterlimit:10;" d="M 102.464844 110.242188 L 89.136719 105.464844 "/>
<path style="fill:none;stroke-width:1.2;stroke-linecap:butt;stroke-linejoin:miter;stroke:rgb(0%,0%,0%);stroke-opacity:1;stroke-miterlimit:10;" d="M 113.542969 121.292969 L 100.214844 116.515625 "/>
<path style="fill:none;stroke-width:1.2;stroke-linecap:butt;stroke-linejoin:miter;stroke:rgb(100%,0%,0%);stroke-opacity:1;stroke-miterlimit:10;" d="M 100.214844 116.515625 L 86.886719 111.738281 "/>
<path style="fill:none;stroke-width:1.2;stroke-linecap:butt;stroke-linejoin:miter;stroke:rgb(0%,0%,0%);stroke-opacity:1;stroke-miterlimit:10;" d="M 114.667969 118.15625 L 119.71875 146.019531 "/>
<path style=" stroke:none;fill-rule:nonzero;fill:rgb(100%,100%,100%);fill-opacity:1;" d="M 79.011719 102.101562 L 88.011719 102.101562 L 88.011719 115.101562 L 79.011719 115.101562 Z M 79.011719 102.101562 "/>
<g style="fill:rgb(100%,0%,0%);fill-opacity:1;">
  <use xlink:href="#glyph0-1" x="79.011719" y="112.00293"/>
</g>
<path style="fill:none;stroke-width:1.2;stroke-linecap:butt;stroke-linejoin:miter;stroke:rgb(0%,0%,0%);stroke-opacity:1;stroke-miterlimit:10;" d="M 119.71875 146.019531 L 114.9375 173.933594 "/>
<path style="fill:none;stroke-width:1.2;stroke-linecap:butt;stroke-linejoin:miter;stroke:rgb(0%,0%,0%);stroke-opacity:1;stroke-miterlimit:10;" d="M 119.71875 146.019531 L 105.5625 146.089844 "/>
<path style="fill:none;stroke-width:1.2;stroke-linecap:butt;stroke-linejoin:miter;stroke:rgb(100%,0%,0%);stroke-opacity:1;stroke-miterlimit:10;" d="M 105.5625 146.089844 L 91.402344 146.15625 "/>
<path style="fill:none;stroke-width:1.2;stroke-linecap:butt;stroke-linejoin:miter;stroke:rgb(100%,0%,0%);stroke-opacity:1;stroke-miterlimit:10;" d="M 146.285156 136.207031 L 133 141.113281 "/>
<path style="fill:none;stroke-width:1.2;stroke-linecap:butt;stroke-linejoin:miter;stroke:rgb(0%,0%,0%);stroke-opacity:1;stroke-miterlimit:10;" d="M 133 141.113281 L 119.71875 146.019531 "/>
<path style="fill:none;stroke-width:1.2;stroke-linecap:butt;stroke-linejoin:miter;stroke:rgb(0%,0%,0%);stroke-opacity:1;stroke-miterlimit:10;" d="M 114.9375 173.933594 L 136.71875 192.027344 "/>
<path style="fill:none;stroke-width:1.2;stroke-linecap:butt;stroke-linejoin:miter;stroke:rgb(0%,0%,0%);stroke-opacity:1;stroke-miterlimit:10;" d="M 114.9375 173.933594 L 88.375 183.746094 "/>
<path style="fill:none;stroke-width:1.2;stroke-linecap:butt;stroke-linejoin:miter;stroke:rgb(0%,0%,0%);stroke-opacity:1;stroke-miterlimit:10;" d="M 133.433594 191.464844 L 131.042969 205.421875 "/>
<path style="fill:none;stroke-width:1.2;stroke-linecap:butt;stroke-linejoin:miter;stroke:rgb(100%,0%,0%);stroke-opacity:1;stroke-miterlimit:10;" d="M 131.042969 205.421875 L 128.652344 219.378906 "/>
<path style="fill:none;stroke-width:1.2;stroke-linecap:butt;stroke-linejoin:miter;stroke:rgb(0%,0%,0%);stroke-opacity:1;stroke-miterlimit:10;" d="M 140.003906 192.589844 L 137.609375 206.546875 "/>
<path style="fill:none;stroke-width:1.2;stroke-linecap:butt;stroke-linejoin:miter;stroke:rgb(100%,0%,0%);stroke-opacity:1;stroke-miterlimit:10;" d="M 137.609375 206.546875 L 135.21875 220.503906 "/>
<path style="fill:none;stroke-width:1.2;stroke-linecap:butt;stroke-linejoin:miter;stroke:rgb(0%,0%,0%);stroke-opacity:1;stroke-miterlimit:10;" d="M 136.71875 192.027344 L 163.28125 182.214844 "/>
<path style=" stroke:none;fill-rule:nonzero;fill:rgb(100%,100%,100%);fill-opacity:1;" d="M 127.9375 213.441406 L 136.9375 213.441406 L 136.9375 226.441406 L 127.9375 226.441406 Z M 127.9375 213.441406 "/>
<g style="fill:rgb(100%,0%,0%);fill-opacity:1;">
  <use xlink:href="#glyph0-1" x="127.9375" y="223.342773"/>
</g>
<path style="fill:none;stroke-width:1.2;stroke-linecap:butt;stroke-linejoin:miter;stroke:rgb(0%,0%,0%);stroke-opacity:1;stroke-miterlimit:10;" d="M 163.28125 182.214844 L 185.0625 200.3125 "/>
<path style="fill:none;stroke-width:1.2;stroke-linecap:butt;stroke-linejoin:miter;stroke:rgb(0%,0%,0%);stroke-opacity:1;stroke-miterlimit:10;" d="M 169.71875 178.898438 L 187.140625 193.378906 "/>
<path style="fill:none;stroke-width:1.2;stroke-linecap:butt;stroke-linejoin:miter;stroke:rgb(0%,0%,0%);stroke-opacity:1;stroke-miterlimit:10;" d="M 168.0625 154.304688 L 163.28125 182.214844 "/>
<path style="fill:none;stroke-width:1.2;stroke-linecap:butt;stroke-linejoin:miter;stroke:rgb(0%,0%,0%);stroke-opacity:1;stroke-miterlimit:10;" d="M 185.0625 200.3125 L 211.625 190.5 "/>
<path style="fill:none;stroke-width:1.2;stroke-linecap:butt;stroke-linejoin:miter;stroke:rgb(0%,0%,0%);stroke-opacity:1;stroke-miterlimit:10;" d="M 185.0625 200.3125 L 182.671875 214.265625 "/>
<path style="fill:none;stroke-width:1.2;stroke-linecap:butt;stroke-linejoin:miter;stroke:rgb(100%,0%,0%);stroke-opacity:1;stroke-miterlimit:10;" d="M 182.671875 214.265625 L 180.28125 228.222656 "/>
<path style="fill:none;stroke-width:1.2;stroke-linecap:butt;stroke-linejoin:miter;stroke:rgb(0%,0%,0%);stroke-opacity:1;stroke-miterlimit:10;" d="M 211.625 190.5 L 216.40625 162.585938 "/>
<path style="fill:none;stroke-width:1.2;stroke-linecap:butt;stroke-linejoin:miter;stroke:rgb(0%,0%,0%);stroke-opacity:1;stroke-miterlimit:10;" d="M 205.535156 186.582031 L 209.363281 164.253906 "/>
<path style="fill:none;stroke-width:1.2;stroke-linecap:butt;stroke-linejoin:miter;stroke:rgb(0%,0%,0%);stroke-opacity:1;stroke-miterlimit:10;" d="M 216.40625 162.585938 L 194.625 144.488281 "/>
<path style="fill:none;stroke-width:1.2;stroke-linecap:butt;stroke-linejoin:miter;stroke:rgb(0%,0%,0%);stroke-opacity:1;stroke-miterlimit:10;" d="M 216.40625 162.585938 L 229.6875 157.679688 "/>
<path style="fill:none;stroke-width:1.2;stroke-linecap:butt;stroke-linejoin:miter;stroke:rgb(100%,0%,0%);stroke-opacity:1;stroke-miterlimit:10;" d="M 229.6875 157.679688 L 242.96875 152.773438 "/>
<path style="fill:none;stroke-width:1.2;stroke-linecap:butt;stroke-linejoin:miter;stroke:rgb(0%,0%,0%);stroke-opacity:1;stroke-miterlimit:10;" d="M 194.625 144.488281 L 168.0625 154.304688 "/>
<path style="fill:none;stroke-width:1.2;stroke-linecap:butt;stroke-linejoin:miter;stroke:rgb(0%,0%,0%);stroke-opacity:1;stroke-miterlimit:10;" d="M 194.277344 151.722656 L 173.027344 159.574219 "/>
<path style="fill:none;stroke-width:1.2;stroke-linecap:butt;stroke-linejoin:miter;stroke:rgb(0%,0%,0%);stroke-opacity:1;stroke-miterlimit:10;" d="M 168.0625 154.304688 L 157.171875 145.253906 "/>
<path style="fill:none;stroke-width:1.2;stroke-linecap:butt;stroke-linejoin:miter;stroke:rgb(100%,0%,0%);stroke-opacity:1;stroke-miterlimit:10;" d="M 157.171875 145.253906 L 146.285156 136.207031 "/>
<path style=" stroke:none;fill-rule:nonzero;fill:rgb(100%,100%,100%);fill-opacity:1;" d="M 142.285156 129.707031 L 151.285156 129.707031 L 151.285156 142.707031 L 142.285156 142.707031 Z M 142.285156 129.707031 "/>
<g style="fill:rgb(100%,0%,0%);fill-opacity:1;">
  <use xlink:href="#glyph0-1" x="142.285156" y="139.608398"/>
</g>
<path style="fill:none;stroke-width:1.2;stroke-linecap:butt;stroke-linejoin:miter;stroke:rgb(100%,0%,0%);stroke-opacity:1;stroke-miterlimit:10;" d="M 242.96875 152.773438 L 253.859375 161.820312 "/>
<path style="fill:none;stroke-width:1.2;stroke-linecap:butt;stroke-linejoin:miter;stroke:rgb(0%,0%,0%);stroke-opacity:1;stroke-miterlimit:10;" d="M 253.859375 161.820312 L 264.75 170.871094 "/>
<path style=" stroke:none;fill-rule:nonzero;fill:rgb(100%,100%,100%);fill-opacity:1;" d="M 238.96875 146.273438 L 247.96875 146.273438 L 247.96875 159.273438 L 238.96875 159.273438 Z M 238.96875 146.273438 "/>
<g style="fill:rgb(100%,0%,0%);fill-opacity:1;">
  <use xlink:href="#glyph0-1" x="238.96875" y="156.174805"/>
</g>
<path style="fill:none;stroke-width:1.2;stroke-linecap:butt;stroke-linejoin:miter;stroke:rgb(100%,0%,0%);stroke-opacity:1;stroke-miterlimit:10;" d="M 180.28125 228.222656 L 191.167969 237.269531 "/>
<path style="fill:none;stroke-width:1.2;stroke-linecap:butt;stroke-linejoin:miter;stroke:rgb(0%,0%,0%);stroke-opacity:1;stroke-miterlimit:10;" d="M 191.167969 237.269531 L 202.058594 246.320312 "/>
<path style=" stroke:none;fill-rule:nonzero;fill:rgb(100%,100%,100%);fill-opacity:1;" d="M 176.28125 221.722656 L 185.28125 221.722656 L 185.28125 234.722656 L 176.28125 234.722656 Z M 176.28125 221.722656 "/>
<g style="fill:rgb(100%,0%,0%);fill-opacity:1;">
  <use xlink:href="#glyph0-1" x="176.28125" y="231.624023"/>
</g>
<path style="fill:none;stroke-width:1.2;stroke-linecap:butt;stroke-linejoin:miter;stroke:rgb(0%,0%,0%);stroke-opacity:1;stroke-miterlimit:10;" d="M 88.375 183.746094 L 66.59375 165.648438 "/>
<path style="fill:none;stroke-width:1.2;stroke-linecap:butt;stroke-linejoin:miter;stroke:rgb(0%,0%,0%);stroke-opacity:1;stroke-miterlimit:10;" d="M 81.9375 187.0625 L 64.515625 172.582031 "/>
<path style="fill:none;stroke-width:1.2;stroke-linecap:butt;stroke-linejoin:miter;stroke:rgb(0%,0%,0%);stroke-opacity:1;stroke-miterlimit:10;" d="M 83.59375 211.65625 L 88.375 183.746094 "/>
<path style="fill:none;stroke-width:1.2;stroke-linecap:butt;stroke-linejoin:miter;stroke:rgb(0%,0%,0%);stroke-opacity:1;stroke-miterlimit:10;" d="M 66.59375 165.648438 L 40.03125 175.460938 "/>
<path style="fill:none;stroke-width:1.2;stroke-linecap:butt;stroke-linejoin:miter;stroke:rgb(0%,0%,0%);stroke-opacity:1;stroke-miterlimit:10;" d="M 40.03125 175.460938 L 35.25 203.375 "/>
<path style="fill:none;stroke-width:1.2;stroke-linecap:butt;stroke-linejoin:miter;stroke:rgb(0%,0%,0%);stroke-opacity:1;stroke-miterlimit:10;" d="M 46.121094 179.378906 L 42.296875 201.707031 "/>
<path style="fill:none;stroke-width:1.2;stroke-linecap:butt;stroke-linejoin:miter;stroke:rgb(0%,0%,0%);stroke-opacity:1;stroke-miterlimit:10;" d="M 35.25 203.375 L 57.03125 221.46875 "/>
<path style="fill:none;stroke-width:1.2;stroke-linecap:butt;stroke-linejoin:miter;stroke:rgb(0%,0%,0%);stroke-opacity:1;stroke-miterlimit:10;" d="M 57.03125 221.46875 L 83.59375 211.65625 "/>
<path style="fill:none;stroke-width:1.2;stroke-linecap:butt;stroke-linejoin:miter;stroke:rgb(0%,0%,0%);stroke-opacity:1;stroke-miterlimit:10;" d="M 57.378906 214.238281 L 78.628906 206.386719 "/>
<path style=" stroke:none;fill-rule:nonzero;fill:rgb(100%,100%,100%);fill-opacity:1;" d="M 74.402344 139.65625 L 91.402344 139.65625 L 91.402344 152.65625 L 74.402344 152.65625 Z M 74.402344 139.65625 "/>
<g style="fill:rgb(100%,0%,0%);fill-opacity:1;">
  <use xlink:href="#glyph0-2" x="74.402344" y="149.557617"/>
  <use xlink:href="#glyph0-1" x="82.426758" y="149.557617"/>
</g>
</g>
</svg>

<svg xmlns="http://www.w3.org/2000/svg" xmlns:xlink="http://www.w3.org/1999/xlink" width="300pt" height="300pt" viewBox="0 0 300 300"><defs><symbol overflow="visible"><path d="M.547 1.938V-7.75h5.5v9.688zm.625-.61h4.266v-8.47H1.171zm0 0"/></symbol><symbol overflow="visible" id="a"><path d="M4.328-7.28c-.78 0-1.406.296-1.875.89-.46.585-.687 1.382-.687 2.39 0 1.012.226 1.813.687 2.406.47.586 1.094.875 1.875.875.79 0 1.414-.288 1.875-.874.457-.593.688-1.394.688-2.406 0-1.008-.23-1.805-.687-2.39-.46-.594-1.086-.89-1.875-.89zm0-.892c1.125 0 2.024.383 2.703 1.14C7.708-6.28 8.048-5.27 8.048-4c0 1.262-.34 2.273-1.016 3.03C6.353-.22 5.454.157 4.33.157S2.3-.22 1.625-.97c-.668-.75-1-1.757-1-3.03 0-1.27.332-2.28 1-3.03.676-.76 1.578-1.142 2.703-1.142zm0 0"/></symbol><symbol overflow="visible" id="b"><path d="M1.078-8.016h1.094v3.282H6.11v-3.282h1.077V0H6.11v-3.813H2.17V0H1.078zm0 0"/></symbol></defs><g><path fill="#fff" d="M0 0h300v300H0z"/><path d="M152.824 53.68L131.22 71.988M131.22 71.988l2.526 13.93" stroke-width="1.2" stroke="#000" stroke-miterlimit="10" fill="none"/><path d="M133.746 85.918l2.527 13.934M136.273 99.852l-10.804 9.152" stroke-width="1.2" stroke="#f00" stroke-miterlimit="10" fill="none"/><path d="M125.47 109.004l-10.802 9.152" stroke-width="1.2" stroke="#000" stroke-miterlimit="10" fill="none"/><path d="M132.273 93.352h9v13h-9zm0 0" fill="#fff"/><use xlink:href="#a" x="132.273" y="103.253" fill="#f00"/><path d="M115.793 115.02l-13.328-4.778" stroke-width="1.2" stroke="#000" stroke-miterlimit="10" fill="none"/><path d="M102.465 110.242l-13.328-4.777" stroke-width="1.2" stroke="#f00" stroke-miterlimit="10" fill="none"/><path d="M113.543 121.293l-13.328-4.777" stroke-width="1.2" stroke="#000" stroke-miterlimit="10" fill="none"/><path d="M100.215 116.516l-13.328-4.778" stroke-width="1.2" stroke="#f00" stroke-miterlimit="10" fill="none"/><path d="M114.668 118.156l5.05 27.864" stroke-width="1.2" stroke="#000" stroke-miterlimit="10" fill="none"/><path d="M79.012 102.102h9v13h-9zm0 0" fill="#fff"/><use xlink:href="#a" x="79.012" y="112.003" fill="#f00"/><path d="M119.72 146.02l-4.782 27.914M119.72 146.02l-14.157.07" stroke-width="1.2" stroke="#000" stroke-miterlimit="10" fill="none"/><path d="M105.563 146.09l-14.16.066M146.285 136.207L133 141.113" stroke-width="1.2" stroke="#f00" stroke-miterlimit="10" fill="none"/><path d="M133 141.113l-13.28 4.907M114.938 173.934l21.78 18.093M114.938 173.934l-26.563 9.812M133.434 191.465l-2.39 13.957" stroke-width="1.2" stroke="#000" stroke-miterlimit="10" fill="none"/><path d="M131.043 205.422l-2.39 13.957" stroke-width="1.2" stroke="#f00" stroke-miterlimit="10" fill="none"/><path d="M140.004 192.59l-2.395 13.957" stroke-width="1.2" stroke="#000" stroke-miterlimit="10" fill="none"/><path d="M137.61 206.547l-2.39 13.957" stroke-width="1.2" stroke="#f00" stroke-miterlimit="10" fill="none"/><path d="M136.72 192.027l26.56-9.812" stroke-width="1.2" stroke="#000" stroke-miterlimit="10" fill="none"/><path d="M127.938 213.44h9v13h-9zm0 0" fill="#fff"/><use xlink:href="#a" x="127.938" y="223.343" fill="#f00"/><path d="M163.28 182.215l21.782 18.097M169.72 178.898l17.42 14.48M168.063 154.305l-4.782 27.91M185.063 200.313l26.562-9.813M185.063 200.313l-2.39 13.953" stroke-width="1.2" stroke="#000" stroke-miterlimit="10" fill="none"/><path d="M182.672 214.266l-2.39 13.957" stroke-width="1.2" stroke="#f00" stroke-miterlimit="10" fill="none"/><path d="M211.625 190.5l4.78-27.914M205.535 186.582l3.828-22.328M216.406 162.586l-21.78-18.098M216.406 162.586l13.28-4.906" stroke-width="1.2" stroke="#000" stroke-miterlimit="10" fill="none"/><path d="M229.688 157.68l13.28-4.907" stroke-width="1.2" stroke="#f00" stroke-miterlimit="10" fill="none"/><path d="M194.625 144.488l-26.563 9.817M194.277 151.723l-21.25 7.85M168.063 154.305l-10.89-9.05" stroke-width="1.2" stroke="#000" stroke-miterlimit="10" fill="none"/><path d="M157.172 145.254l-10.887-9.047" stroke-width="1.2" stroke="#f00" stroke-miterlimit="10" fill="none"/><path d="M142.285 129.707h9v13h-9zm0 0" fill="#fff"/><use xlink:href="#a" x="142.285" y="139.608" fill="#f00"/><path d="M242.97 152.773l10.89 9.047" stroke-width="1.2" stroke="#f00" stroke-miterlimit="10" fill="none"/><path d="M253.86 161.82l10.89 9.05" stroke-width="1.2" stroke="#000" stroke-miterlimit="10" fill="none"/><path d="M238.97 146.273h9v13h-9zm0 0" fill="#fff"/><use xlink:href="#a" x="238.969" y="156.175" fill="#f00"/><path d="M180.28 228.223l10.888 9.047" stroke-width="1.2" stroke="#f00" stroke-miterlimit="10" fill="none"/><path d="M191.168 237.27l10.89 9.05" stroke-width="1.2" stroke="#000" stroke-miterlimit="10" fill="none"/><path d="M176.28 221.723h9v13h-9zm0 0" fill="#fff"/><use xlink:href="#a" x="176.281" y="231.624" fill="#f00"/><path d="M88.375 183.746l-21.78-18.098M81.938 187.063l-17.422-14.48M83.594 211.656l4.78-27.91M66.594 165.648L40.03 175.46M40.03 175.46l-4.78 27.915M46.12 179.38l-3.823 22.327M35.25 203.375l21.78 18.094M57.03 221.47l26.564-9.814M57.38 214.238l21.25-7.85" stroke-width="1.2" stroke="#000" stroke-miterlimit="10" fill="none"/><path d="M74.402 139.656h17v13h-17zm0 0" fill="#fff"/><g fill="#f00"><use xlink:href="#b" x="74.402" y="149.558"/><use xlink:href="#a" x="82.427" y="149.558"/></g></g></svg>
